abel/img/sprite/mail.svg

<svg width="48" height="35" viewBox="0 0 48 35" fill="none" xmlns="http://www.w3.org/2000/svg">
<path d="M2.22857 0.908572C3.08566 0.317746 4.10186 0.000928602 5.14286 0H42.8571C43.8981 0.000928602 44.9143 0.317746 45.7714 0.908572L24 11.7943L2.22857 0.908572ZM47.7771 3.73714C47.9219 4.1918 47.997 4.66573 48 5.14286V29.1429C48 30.5068 47.4582 31.8149 46.4937 32.7794C45.5292 33.7439 44.2211 34.2857 42.8571 34.2857H5.14286C3.77889 34.2857 2.47078 33.7439 1.50631 32.7794C0.541835 31.8149 0 30.5068 0 29.1429V5.14286C0.00298169 4.66573 0.0781175 4.1918 0.222857 3.73714L23.2286 15.24C23.4678 15.3606 23.7321 15.4234 24 15.4234C24.2679 15.4234 24.5322 15.3606 24.7714 15.24L47.7771 3.73714ZM15.4286 24H6.85714V27.4286H15.4286V24Z" fill="white"/>
</svg>

<svg width="48" height="35" fill="none" xmlns="http://www.w3.org/2000/svg"><path d="M2.229.909A5.143 5.143 0 0 1 5.143 0h37.714c1.041 0 2.057.318 2.914.909L24 11.794 2.229.91zm45.548 2.828c.145.455.22.929.223 1.406v24a5.143 5.143 0 0 1-5.143 5.143H5.143A5.143 5.143 0 0 1 0 29.143v-24c.003-.477.078-.951.223-1.406L23.229 15.24a1.714 1.714 0 0 0 1.542 0L47.777 3.737zM15.43 24H6.857v3.429h8.572V24z" fill="#fff"/></svg>
